apps/www/public/images/logos/publicity/fixed-width/betashares.svg

<svg width="180" height="60" viewBox="0 0 180 60" fill="none" xmlns="http://www.w3.org/2000/svg">
<g clip-path="url(#clip0_2080_14366)">
<path fill-rule="evenodd" clip-rule="evenodd" d="M51.6854 30.003C51.6854 37.0942 45.9369 42.8428 38.8456 42.8428C31.7544 42.8428 26.0059 37.0942 26.0059 30.003C26.0059 22.9118 31.7544 17.1632 38.8456 17.1632C45.9369 17.1632 51.6854 22.9118 51.6854 30.003ZM35.9601 24.8638C35.9037 24.8312 35.8325 24.8727 35.8325 24.938V35.0769C35.8325 35.0918 35.8365 35.1065 35.8439 35.1194C35.8514 35.1324 35.8621 35.1431 35.875 35.1506C35.8879 35.1581 35.9025 35.1621 35.9175 35.1622C35.9324 35.1623 35.9471 35.1584 35.9601 35.1511L44.7404 30.0816C44.7968 30.049 44.7968 29.9659 44.7404 29.9333L35.9601 24.8638ZM37.4922 24.0792C37.4136 24.0792 37.3854 24.1845 37.4536 24.2246H37.4521L44.4957 28.2914C44.5654 28.3315 44.6425 28.2543 44.6025 28.1861L42.3095 24.1964C42.268 24.1237 42.1909 24.0792 42.1078 24.0792H37.4922ZM34.3864 34.0906C34.4265 34.1603 34.5318 34.1321 34.5318 34.052V25.9495C34.5318 25.8694 34.4265 25.8427 34.3864 25.9109L32.1023 29.8843C32.0608 29.957 32.0608 30.046 32.1023 30.1172L34.3864 34.0906ZM44.4883 31.7279C44.558 31.6879 44.6351 31.765 44.5951 31.8332L44.5936 31.8347L42.308 35.8081C42.2665 35.8808 42.1894 35.9253 42.1063 35.9253H37.5085C37.4299 35.9253 37.4017 35.82 37.4699 35.7799L44.4883 31.7279ZM46.9251 29.6144C47.0631 29.8547 47.0631 30.1484 46.9251 30.3886L43.2187 36.8345C43.0808 37.0762 42.8227 37.2245 42.5453 37.2245H35.1384C35.0018 37.2243 34.8677 37.1881 34.7495 37.1197C34.6313 37.0512 34.5332 36.9528 34.465 36.8345L30.7586 30.3886C30.6207 30.1484 30.6207 29.8547 30.7586 29.6144L34.465 23.1686C34.603 22.9268 34.861 22.7785 35.1384 22.7785H42.5453C42.6819 22.7787 42.816 22.8149 42.9342 22.8834C43.0524 22.9518 43.1505 23.0502 43.2187 23.1686L46.9251 29.6144Z" fill="#7E7E7E"/>
<path fill-rule="evenodd" clip-rule="evenodd" d="M58.6515 32.33C58.6515 30.6333 59.9047 29.2851 61.689 29.2851C63.4732 29.2851 64.7265 30.6333 64.7265 32.33C64.7265 34.0268 63.4525 35.3958 61.689 35.3958C59.9255 35.3958 58.6515 34.0268 58.6515 32.33ZM62.22 37.5004C65.1092 37.5004 67.0848 35.2118 67.0848 32.33C67.0848 29.4483 65.1092 27.1805 62.22 27.1805C60.8184 27.1805 59.4375 27.8138 58.7152 28.938V22.9505H56.357V37.2542H58.5877V35.4966C59.267 36.784 60.7546 37.4989 62.22 37.4989V37.5004ZM70.1905 31.1643C70.5524 29.8561 71.5283 29.0389 72.9729 29.0389C74.4175 29.0389 75.438 29.8561 75.7776 31.1643H70.1905ZM73.1435 37.5597C75.2259 37.5597 77.0531 36.6817 77.9668 34.7194V34.6779C77.329 34.7194 76.3738 34.2893 75.9912 33.7791L75.9704 33.7999C75.5878 34.8218 74.5688 35.5782 73.188 35.5782C71.5313 35.5782 70.278 34.5355 70.0644 32.8403H78.0305C78.4132 29.7553 76.3738 27.1182 72.9952 27.1182C69.9992 27.1182 67.8323 29.4483 67.8323 32.3286C67.8323 35.2089 70.0422 37.5597 73.1435 37.5597ZM78.5319 29.4483H79.9127V37.2542H82.2932V29.4483H83.8016V27.4044H82.2932V24.2557H79.9127V27.4044H78.5319V29.4483ZM86.5914 32.33C86.5914 30.6333 87.8447 29.2851 89.6289 29.2851C91.4132 29.2851 92.6887 30.6541 92.6887 32.33C92.6887 34.006 91.4354 35.3958 89.6289 35.3958C87.8224 35.3958 86.5914 34.0268 86.5914 32.33ZM89.1202 37.4796C90.501 37.4796 92.0094 36.8048 92.6887 35.5381V37.2542H94.9832V27.4044H92.6887V29.1205C92.0094 27.8538 90.501 27.179 89.1202 27.179C86.2102 27.179 84.2332 29.4675 84.2332 32.3286C84.2332 35.1896 86.2087 37.4781 89.1202 37.4781V37.4796ZM100.383 37.5612C102.721 37.5612 104.314 36.1314 104.314 34.2715C104.314 32.4116 102.826 31.5944 101.254 31.2874L100.297 31.1035C99.4475 30.9196 98.8097 30.6941 98.8097 30.0415C98.8097 29.469 99.3615 28.938 100.234 28.938C101.19 28.938 101.933 29.4082 102.166 30.4093H102.187C102.59 29.9392 103.547 29.5714 104.183 29.6529L104.204 29.6322C103.821 28.2424 102.441 27.0989 100.294 27.0989C98.1482 27.0989 96.5123 28.4886 96.5123 30.1646C96.5123 31.6775 97.5327 32.5763 99.5928 33.0049L100.591 33.2096C101.377 33.3935 101.993 33.6382 101.993 34.3546C101.993 35.0709 101.441 35.642 100.4 35.642C99.1256 35.642 98.212 34.8247 98.0415 33.8028L98.0207 33.7821C97.6173 34.2522 96.6606 34.5993 96.0243 34.5177L96.0036 34.5385C96.3862 36.3776 98.086 37.5627 100.38 37.5627L100.383 37.5612ZM105.46 37.2542H107.818V31.6552C107.818 30.2254 108.839 29.2851 110.241 29.2851C111.642 29.2851 112.535 30.1839 112.535 31.5736V37.2542H114.893V30.7356C114.893 28.6518 113.237 27.1597 111.047 27.1597C109.751 27.1597 108.477 27.7322 107.818 28.8965V22.9505H105.46V37.2542ZM118.382 32.33C118.382 30.6333 119.635 29.2851 121.419 29.2851C123.203 29.2851 124.479 30.6541 124.479 32.33C124.479 34.006 123.226 35.3958 121.419 35.3958C119.613 35.3958 118.382 34.0268 118.382 32.33ZM120.91 37.4796C122.291 37.4796 123.8 36.8048 124.479 35.5381V37.2542H126.773V27.4044H124.479V29.1205C123.8 27.8538 122.291 27.179 120.91 27.179C118 27.179 116.023 29.4675 116.023 32.3286C116.023 35.1896 117.999 37.4781 120.91 37.4781V37.4796ZM128.626 30.1023V37.2542H130.984V32.8818C130.984 31.1658 131.515 29.5714 133.236 29.5714C133.746 29.5714 134.192 29.6945 134.425 29.8784H134.446C134.467 29.2451 135.02 28.3255 135.572 27.9784V27.9369C135.189 27.5083 134.51 27.2428 133.596 27.2428C132.3 27.2428 131.386 28.02 130.919 29.0819V27.4059H128.624V30.1038L128.626 30.1023ZM137.273 31.1643C137.633 29.8561 138.611 29.0389 140.055 29.0389C141.5 29.0389 142.52 29.8561 142.86 31.1643H137.273ZM140.226 37.5597C142.308 37.5597 144.135 36.6817 145.049 34.7194V34.6779C144.411 34.7194 143.456 34.2893 143.073 33.7791L143.053 33.7999C142.67 34.8218 141.651 35.5782 140.27 35.5782C138.614 35.5782 137.36 34.5355 137.147 32.8403H145.113C145.495 29.7553 143.456 27.1182 140.077 27.1182C137.081 27.1182 134.915 29.4483 134.915 32.3286C134.915 35.2089 137.124 37.5597 140.226 37.5597ZM150.089 37.5612C152.426 37.5612 154.019 36.1314 154.019 34.2715C154.019 32.4116 152.532 31.5944 150.959 31.2874L150.003 31.1035C149.153 30.9196 148.515 30.6941 148.515 30.0415C148.515 29.469 149.067 28.938 149.939 28.938C150.896 28.938 151.639 29.4082 151.872 30.4093H151.892C152.296 29.9392 153.252 29.5714 153.889 29.6529L153.909 29.6322C153.527 28.2424 152.146 27.0989 150 27.0989C147.854 27.0989 146.218 28.4886 146.218 30.1646C146.218 31.6775 147.238 32.5763 149.298 33.0049L150.296 33.2096C151.083 33.3935 151.698 33.6382 151.698 34.3546C151.698 35.0709 151.146 35.642 150.105 35.642C148.831 35.642 147.917 34.8247 147.747 33.8028L147.726 33.7821C147.323 34.2522 146.366 34.5993 145.73 34.5177L145.709 34.5385C146.092 36.3776 147.791 37.5627 150.086 37.5627L150.089 37.5612Z" fill="#7E7E7E"/>
</g>
<defs>
<clipPath id="clip0_2080_14366">
<rect width="128.129" height="25.9198" fill="white" transform="translate(25.9351 17.0401)"/>
</clipPath>
</defs>
</svg>

<svg xmlns="http://www.w3.org/2000/svg" width="180" height="60" fill="none" viewBox="0 0 180 60"><g fill="#7e7e7e" fill-rule="evenodd" clip-path="url(#a)" clip-rule="evenodd"><path d="M51.685 30.003c0 7.091-5.748 12.84-12.84 12.84-7.09 0-12.84-5.749-12.84-12.84s5.75-12.84 12.84-12.84c7.092 0 12.84 5.749 12.84 12.84m-15.725-5.14a.085.085 0 0 0-.127.075v10.139a.086.086 0 0 0 .127.074l8.78-5.07a.086.086 0 0 0 0-.148zm1.532-.784c-.078 0-.107.105-.038.146h-.002l7.044 4.066c.07.04.146-.037.106-.105l-2.292-3.99a.23.23 0 0 0-.202-.117zm-3.106 10.012c.04.07.146.041.146-.039V25.95c0-.08-.105-.107-.146-.04l-2.284 3.974a.23.23 0 0 0 0 .233zm10.102-2.363c.07-.04.147.037.107.105l-.001.002-2.286 3.973a.23.23 0 0 1-.202.117h-4.598c-.078 0-.106-.105-.038-.145zm2.437-2.114a.78.78 0 0 1 0 .775l-3.706 6.445a.78.78 0 0 1-.674.39h-7.407a.78.78 0 0 1-.673-.39l-3.706-6.445a.78.78 0 0 1 0-.775l3.706-6.445a.78.78 0 0 1 .673-.39h7.407a.78.78 0 0 1 .674.39zM58.652 32.33c0-1.697 1.253-3.045 3.037-3.045s3.038 1.348 3.038 3.045-1.275 3.066-3.038 3.066c-1.764 0-3.038-1.37-3.038-3.066m3.568 5.17c2.89 0 4.865-2.288 4.865-5.17s-1.976-5.15-4.865-5.15c-1.402 0-2.782.634-3.505 1.758v-5.987h-2.358v14.303h2.23v-1.757c.68 1.287 2.168 2.002 3.633 2.002zm7.97-6.336c.362-1.308 1.338-2.125 2.783-2.125s2.465.817 2.805 2.125zm2.954 6.396c2.082 0 3.91-.878 4.823-2.84v-.042c-.638.041-1.593-.389-1.976-.899l-.02.02c-.383 1.023-1.402 1.78-2.783 1.78-1.657 0-2.91-1.044-3.124-2.739h7.967c.382-3.085-1.657-5.722-5.036-5.722-2.996 0-5.163 2.33-5.163 5.21s2.21 5.232 5.312 5.232m5.388-8.112h1.38v7.806h2.381v-7.806h1.509v-2.044h-1.509v-3.148h-2.38v3.148h-1.381zm8.06 2.882c0-1.697 1.253-3.045 3.037-3.045s3.06 1.37 3.06 3.045c0 1.676-1.254 3.066-3.06 3.066s-3.038-1.37-3.038-3.066m2.528 5.15c1.381 0 2.89-.675 3.569-1.942v1.716h2.294v-9.85H92.69v1.717c-.68-1.267-2.188-1.942-3.569-1.942-2.91 0-4.887 2.289-4.887 5.15 0 2.86 1.976 5.15 4.887 5.15m11.263.081c2.338 0 3.931-1.43 3.931-3.29s-1.488-2.677-3.06-2.984l-.957-.183c-.85-.184-1.487-.41-1.487-1.062 0-.573.552-1.104 1.424-1.104.956 0 1.699.47 1.932 1.471h.021c.403-.47 1.36-.838 1.996-.756l.021-.02c-.383-1.39-1.763-2.534-3.91-2.534-2.146 0-3.782 1.39-3.782 3.066 0 1.512 1.02 2.411 3.08 2.84l.999.205c.786.184 1.402.428 1.402 1.145 0 .716-.552 1.287-1.593 1.287-1.274 0-2.188-.817-2.359-1.84l-.02-.02c-.404.47-1.36.817-1.997.736l-.02.02c.382 1.84 2.082 3.025 4.376 3.025zm5.077-.307h2.358v-5.599c0-1.43 1.021-2.37 2.423-2.37 1.401 0 2.294.899 2.294 2.289v5.68h2.358v-6.518c0-2.084-1.656-3.576-3.846-3.576-1.296 0-2.57.572-3.229 1.736v-5.945h-2.358zm12.922-4.924c0-1.697 1.253-3.045 3.037-3.045s3.06 1.37 3.06 3.045c0 1.676-1.253 3.066-3.06 3.066-1.806 0-3.037-1.37-3.037-3.066m2.528 5.15c1.381 0 2.89-.675 3.569-1.942v1.716h2.294v-9.85h-2.294v1.717c-.679-1.267-2.188-1.942-3.569-1.942-2.91 0-4.887 2.289-4.887 5.15 0 2.86 1.976 5.15 4.887 5.15m7.716-7.378v7.152h2.358v-4.372c0-1.716.531-3.31 2.252-3.31.51 0 .956.123 1.189.306h.021c.021-.633.574-1.552 1.126-1.9v-.041c-.383-.429-1.062-.694-1.976-.694-1.296 0-2.21.777-2.677 1.839v-1.676h-2.295v2.698zm8.647 1.062c.36-1.308 1.338-2.125 2.782-2.125 1.445 0 2.465.817 2.805 2.125zm2.953 6.396c2.082 0 3.909-.878 4.823-2.84v-.042c-.638.041-1.593-.389-1.976-.899l-.02.02c-.383 1.023-1.402 1.78-2.783 1.78-1.656 0-2.91-1.044-3.123-2.739h7.966c.382-3.085-1.657-5.722-5.036-5.722-2.996 0-5.162 2.33-5.162 5.21s2.209 5.232 5.311 5.232m9.863.001c2.337 0 3.93-1.43 3.93-3.29s-1.487-2.677-3.06-2.984l-.956-.183c-.85-.184-1.488-.41-1.488-1.062 0-.573.552-1.104 1.424-1.104.957 0 1.7.47 1.933 1.471h.02c.404-.47 1.36-.838 1.997-.756l.02-.02c-.382-1.39-1.763-2.534-3.909-2.534s-3.782 1.39-3.782 3.066c0 1.512 1.02 2.411 3.08 2.84l.998.205c.787.184 1.402.428 1.402 1.145 0 .716-.552 1.287-1.593 1.287-1.274 0-2.188-.817-2.358-1.84l-.021-.02c-.403.47-1.36.817-1.996.736l-.021.02c.383 1.84 2.082 3.025 4.377 3.025z"/></g><defs><clipPath id="a"><path fill="#fff" d="M25.935 17.04h128.13v25.92H25.934z"/></clipPath></defs></svg>
